X: 6956
T: Cheviot Blast
R: jig
M: 6/8
K: Amixolydian
Aee dee|gee dee|Aee dee|Bgg fed|
Aee dee|gBg fdd|Aee gee|1 dgB A2e:|2 dgB A3||
|:eaa caa|Bgg fdd|eaa Agf|eBe dGB|
eaa caa|gBg fdd|egg Bgg|1 egB A3:|2 egB A2d||
|:eAe AeA|eAe dBB|eAe AeA|Bgg fed|
eAe AeA|eAe dBB|eaa gee|1 dgB A2d:|2 dgB A2g||
|:acc gBB|acc Bdg|acc gBB|GBg fdd|
acc gBB|a2a fdd|egg Bgg|1 egB A2g:|2 egB A2e||

